!!!COM: Radoslavov, Tsvetan Tsvetkov
!!!CDT: 1863-1931
!!!OTL: National Anthem, Bulgaria
!!!ENC: Davis, Matthew J.
!!Vocal Line Only
**kern
*clefG2
*k[]
*a:
*M3/4
=1-
1r
=2
1r
==3
4e
4a
8a
8b
=4
8.cc
16b
2a
=5
4e
4a
8a
7b
=6
8.cc
16b
2a
=7
4e
4a
8a
8b
=8
8.dd
16cc
4b
4a
=9
8.g#
16a
4g#
4f
=10
8.e
16g#
8a
8b
8cc
8dd
==|:11
!Chorus
!Repeat to measure 19, the second ending
4ee
4dd
8.cc
16dd
=12
2.ee
=13
4dd
4cc
8b
8a
=14
4cc
2ee
=15
4dd
4cc
8b
8a
=16
4g#
4a
8g
8f
=17
4e
4f
8.e
16g#
==||18
*M2/2
!First Ending
8a
8b
8cc
8dd
==:|19
!Second Ending
*M3/4
[2a
8a]
8r
==|!
*-
